X:1
T:Critchlow, CM
T:Critchlow, CM
T:Thoro Harris, before 1911
T:Public Domain Courtesy of the Cyber Hymnal™
C:Thoro Harris, before 1911
Z:Public Domain
Z:Courtesy of the Cyber Hymnal™
%%score ( 1 2 ) ( 3 4 )
L:1/8
Q:1/4=115
M:4/4
K:Bb
V:1 treble 
V:2 treble 
V:3 bass 
V:4 bass 
V:1
 [B,D]2 [B,D][CE] [DF]2 [FB]2 | [FG]2 [EB]2 [DF]4 | [EA]2 [EA][DB] [Ec]2 [Fd]2 | ([Ec]4 [DB]4) | %4
 [Fd]2 [=Ed][_Ec] [DB]2 (D[CE]) | [B,F]2 [D_A]2 [EG]4 | [Ge]2 [Gd][Gc] [FB]2 [FA]2 | (c4 B4) |] %8
V:2
 x8 | x8 | x8 | x8 | x8 | x8 | x8 | F8 |] %8
V:3
 [B,,F,]2 [B,,F,][B,,F,] [B,,B,]2 [D,B,]2 | [E,B,]2 [G,B,]2 [B,D]4 | %2
 [F,C]2 [F,C][F,B,] [F,A,]2 [F,^G,]2 | ([F,A,]4 [B,,B,]4) | [B,,F,]2 [B,,G,][B,,A,] [B,,B,]2 F,2 | %5
 [D,B,]2 [B,,F,]2 [E,G,]4 | [C,C]2 [D,=B,][E,C] [F,D]2 (CD) | ([F,E]4 [B,,D]4) |] %8
V:4
 x8 | x8 | x8 | x8 | x6 (B,,C,) | x8 | x6 F,2 | x8 |] %8

